svg/aws-iam.svg

<?xml version="1.0" encoding="UTF-8"?>
<svg xmlns="http://www.w3.org/2000/svg" xmlns:xlink="http://www.w3.org/1999/xlink" width="32" height="32" viewBox="0 0 32 32">
<path fill-rule="nonzero" fill="rgb(86.666667%, 20.392157%, 29.803922%)" fill-opacity="1" d="M 0.203125 0.203125 L 31.796875 0.203125 L 31.796875 31.796875 L 0.203125 31.796875 Z M 0.203125 0.203125 "/>
<path fill-rule="nonzero" fill="rgb(100%, 100%, 100%)" fill-opacity="1" d="M 4.265625 24.574219 L 27.734375 24.574219 L 27.734375 7.425781 L 4.265625 7.425781 Z M 28.636719 6.972656 L 28.636719 25.027344 C 28.636719 25.273438 28.4375 25.476562 28.1875 25.476562 L 3.8125 25.476562 C 3.5625 25.476562 3.363281 25.277344 3.363281 25.027344 L 3.363281 6.972656 C 3.363281 6.722656 3.566406 6.523438 3.8125 6.523438 L 28.1875 6.523438 C 28.4375 6.523438 28.636719 6.726562 28.636719 6.972656 M 17.804688 19.609375 L 24.574219 19.609375 L 24.574219 18.710938 L 17.804688 18.710938 Z M 23.671875 16.902344 L 25.929688 16.902344 L 25.929688 16 L 23.671875 16 Z M 17.804688 16.902344 L 21.417969 16.902344 L 21.417969 16 L 17.804688 16 Z M 11.035156 18.710938 C 11.035156 18.589844 10.988281 18.476562 10.902344 18.390625 C 10.820312 18.304688 10.703125 18.257812 10.585938 18.257812 C 10.417969 18.25 10.257812 18.332031 10.167969 18.472656 C 10.085938 18.621094 10.085938 18.796875 10.167969 18.945312 C 10.257812 19.089844 10.417969 19.171875 10.585938 19.160156 C 10.835938 19.160156 11.035156 18.957031 11.035156 18.710938 M 11.9375 18.710938 C 11.9375 19.296875 11.5625 19.792969 11.035156 19.976562 L 11.035156 20.964844 L 10.132812 20.964844 L 10.132812 19.976562 C 9.59375 19.789062 9.234375 19.28125 9.230469 18.710938 C 9.230469 17.960938 9.84375 17.351562 10.589844 17.351562 C 11.328125 17.351562 11.9375 17.960938 11.9375 18.710938 M 6.523438 22.316406 L 14.648438 22.320312 L 14.648438 20.511719 L 12.839844 20.511719 L 12.839844 19.609375 L 14.644531 19.609375 L 14.644531 18.257812 L 12.839844 18.257812 L 12.839844 17.351562 L 14.648438 17.351562 L 14.648438 16.003906 L 6.527344 16 Z M 7.878906 15.097656 L 13.289062 15.101562 L 13.289062 11.9375 C 13.296875 10.898438 12.027344 9.984375 10.589844 9.984375 L 10.585938 9.984375 C 9.144531 9.984375 7.882812 10.894531 7.882812 11.9375 Z M 5.617188 22.769531 L 5.621094 15.550781 C 5.621094 15.429688 5.667969 15.316406 5.75 15.230469 C 5.835938 15.144531 5.949219 15.097656 6.070312 15.097656 L 6.972656 15.097656 L 6.976562 11.9375 C 6.976562 10.363281 8.589844 9.082031 10.582031 9.082031 L 10.585938 9.082031 C 12.574219 9.085938 14.195312 10.367188 14.195312 11.9375 L 14.195312 15.101562 L 15.097656 15.101562 C 15.347656 15.101562 15.550781 15.304688 15.550781 15.550781 L 15.546875 22.769531 C 15.546875 22.890625 15.496094 23.003906 15.414062 23.089844 C 15.328125 23.175781 15.214844 23.222656 15.09375 23.222656 L 6.070312 23.21875 C 5.949219 23.21875 5.835938 23.171875 5.75 23.089844 C 5.664062 23.003906 5.617188 22.890625 5.617188 22.769531 M 25.027344 14.195312 L 25.929688 14.195312 L 25.929688 13.289062 L 25.027344 13.289062 Z M 17.804688 14.195312 L 22.769531 14.195312 L 22.769531 13.289062 L 17.804688 13.289062 Z M 17.804688 14.195312 "/>
</svg>

<svg role="img" viewBox="0 0 32 32" xmlns="http://www.w3.org/2000/svg"><path d="M.203.203h31.594v31.594H.203Zm0 0" fill="rgb(86.666667%, 20.392157%, 29.803923%)"/><path d="M4.266 24.574h23.468V7.426H4.266Zm24.37-17.601v18.054c0 .246-.198.45-.448.45H3.813c-.25 0-.45-.2-.45-.45V6.973c0-.25.203-.45.45-.45h24.375a.45.45 0 0 1 .449.45M17.806 19.609h6.77v-.898h-6.77Zm5.867-2.707h2.258V16h-2.258Zm-5.867 0h3.613V16h-3.613Zm-6.77 1.809a.45.45 0 0 0-.45-.453.46.46 0 0 0-.417.215.47.47 0 0 0 0 .472c.09.145.25.227.418.215a.45.45 0 0 0 .45-.45m.902 0c0 .586-.378 1.082-.902 1.266v.988h-.906v-.988a1.35 1.35 0 0 1-.899-1.266c0-.75.61-1.36 1.356-1.36.742 0 1.351.61 1.351 1.36m-5.414 3.605 8.122.004v-1.808H12.84v-.903h1.805v-1.351H12.84v-.906h1.808v-1.348L6.528 16Zm1.352-7.218 5.414.004v-3.165c.004-1.039-1.262-1.953-2.703-1.953h-.004c-1.441 0-2.703.91-2.703 1.954Zm-2.26 7.673.004-7.22a.45.45 0 0 1 .45-.453h.902l.004-3.16c0-1.574 1.613-2.855 3.605-2.855h.004c1.988.004 3.61 1.285 3.61 2.855v3.165h.902c.25 0 .453.203.453.449l-.004 7.219c0 .12-.05.234-.133.32a.45.45 0 0 1-.32.133l-9.024-.004a.45.45 0 0 1-.453-.45m19.41-8.575h.903v-.906h-.903Zm-7.222 0h4.965v-.906h-4.965Zm0 0" fill="rgb(100%, 100%, 100%)"/></svg>
